src/pos-icons/pac-man.svg

<svg height="24" viewBox="0 0 24 24" width="24" xmlns="http://www.w3.org/2000/svg"><path d="m12 12 7.07 7.07c-3.9 3.93-10.24 3.93-14.14 0-3.93-3.9-3.93-10.23 0-14.14 3.9-3.93 10.23-3.93 14.14 0zm7-2a2 2 0 0 0 -2 2 2 2 0 0 0 2 2 2 2 0 0 0 2-2 2 2 0 0 0 -2-2z"/></svg>

<?xml version="1.0" encoding="UTF-8"?><!DOCTYPE svg PUBLIC "-//W3C//DTD SVG 1.1//EN" "http://www.w3.org/Graphics/SVG/1.1/DTD/svg11.dtd"><svg xmlns="http://www.w3.org/2000/svg" xmlns:xlink="http://www.w3.org/1999/xlink" version="1.1" id="mdi-pac-man" width="24" height="24" viewBox="0 0 24 24"><path d="M12,12L19.07,19.07C15.17,23 8.83,23 4.93,19.07C1,15.17 1,8.84 4.93,4.93C8.83,1 15.16,1 19.07,4.93L12,12M19,10A2,2 0 0,0 17,12A2,2 0 0,0 19,14A2,2 0 0,0 21,12A2,2 0 0,0 19,10Z" /></svg>
